icons/matlab/matlab-original.svg

<?xml version="1.0" encoding="UTF-8"?>
<svg xmlns="http://www.w3.org/2000/svg" xmlns:xlink="http://www.w3.org/1999/xlink" width="128px" height="128px" viewBox="0 0 128 128" version="1.1">
<defs>
<linearGradient id="linear0" gradientUnits="userSpaceOnUse" x1="16.8" y1="15.37" x2="15.01" y2="9.59" >
<stop offset="0" style="stop-color:rgb(33.333333%,6.666667%,13.333333%);stop-opacity:1;"/>
<stop offset="0.1" style="stop-color:rgb(33.333333%,13.333333%,13.333333%);stop-opacity:1;"/>
<stop offset="0.23" style="stop-color:rgb(33.333333%,13.333333%,20%);stop-opacity:1;"/>
<stop offset="0.36" style="stop-color:rgb(33.333333%,20%,26.666667%);stop-opacity:1;"/>
<stop offset="0.51" style="stop-color:rgb(40%,26.666667%,33.333333%);stop-opacity:1;"/>
<stop offset="0.66" style="stop-color:rgb(33.333333%,40%,53.333333%);stop-opacity:1;"/>
<stop offset="0.81" style="stop-color:rgb(20%,53.333333%,80%);stop-opacity:1;"/>
<stop offset="0.84" style="stop-color:rgb(13.333333%,60%,86.666667%);stop-opacity:1;"/>
</linearGradient>
<linearGradient id="linear1" gradientUnits="userSpaceOnUse" x1="2" y1="17.96" x2="13.27" y2="17.96" >
<stop offset="0" style="stop-color:rgb(33.333333%,66.666667%,93.333333%);stop-opacity:1;"/>
<stop offset="0.24" style="stop-color:rgb(33.333333%,66.666667%,86.666667%);stop-opacity:1;"/>
<stop offset="0.49" style="stop-color:rgb(33.333333%,66.666667%,86.666667%);stop-opacity:1;"/>
<stop offset="0.75" style="stop-color:rgb(40%,60%,80%);stop-opacity:1;"/>
<stop offset="1" style="stop-color:rgb(40%,53.333333%,66.666667%);stop-opacity:1;"/>
</linearGradient>
<clipPath id="clip1">
  <path d="M 9 3 L 30 3 L 30 29 L 9 29 Z M 9 3 "/>
</clipPath>
<clipPath id="clip2">
  <path d="M 20.800781 3.300781 C 18.621094 3.300781 17.128906 14.78125 9.078125 21.191406 C 11.339844 20.820312 13.300781 26.429688 14.199219 28.699219 C 18.199219 28.019531 21.398438 20.371094 24.628906 20.488281 C 26.480469 20.558594 28.101562 22.351562 30 24.121094 C 25.660156 15 23.628906 3.300781 20.800781 3.300781 Z M 20.800781 3.300781 "/>
</clipPath>
<linearGradient id="linear2" gradientUnits="userSpaceOnUse" x1="14.6" y1="14.37" x2="21.6" y2="16.7" >
<stop offset="0" style="stop-color:rgb(40%,6.666667%,13.333333%);stop-opacity:1;"/>
<stop offset="0.3" style="stop-color:rgb(53.333333%,13.333333%,13.333333%);stop-opacity:1;"/>
<stop offset="0.44" style="stop-color:rgb(53.333333%,13.333333%,13.333333%);stop-opacity:0.8;"/>
<stop offset="0.63" style="stop-color:rgb(60%,13.333333%,13.333333%);stop-opacity:0.521569;"/>
<stop offset="0.86" style="stop-color:rgb(73.333333%,20%,20%);stop-opacity:0.211765;"/>
<stop offset="1" style="stop-color:rgb(80%,20%,20%);stop-opacity:0;"/>
</linearGradient>
<linearGradient id="linear3" gradientUnits="userSpaceOnUse" x1="27.17" y1="14.12" x2="22.12" y2="15.36" >
<stop offset="0.07" style="stop-color:rgb(80%,20%,20%);stop-opacity:1;"/>
<stop offset="0.28" style="stop-color:rgb(86.666667%,26.666667%,20%);stop-opacity:1;"/>
<stop offset="0.41" style="stop-color:rgb(86.666667%,26.666667%,20%);stop-opacity:1;"/>
<stop offset="1" style="stop-color:rgb(80%,20%,20%);stop-opacity:0;"/>
</linearGradient>
<radialGradient id="radial0" gradientUnits="userSpaceOnUse" cx="13.42" cy="30.06" fx="13.13" fy="30.43" r="10.64" >
<stop offset="0.17" style="stop-color:rgb(100%,100%,26.666667%);stop-opacity:1;"/>
<stop offset="0.23" style="stop-color:rgb(100%,93.333333%,26.666667%);stop-opacity:1;"/>
<stop offset="0.36" style="stop-color:rgb(100%,73.333333%,26.666667%);stop-opacity:0.878431;"/>
<stop offset="0.55" style="stop-color:rgb(93.333333%,46.666667%,26.666667%);stop-opacity:0.760784;"/>
<stop offset="0.58" style="stop-color:rgb(93.333333%,46.666667%,26.666667%);stop-opacity:0.741176;"/>
<stop offset="0.8" style="stop-color:rgb(100%,53.333333%,26.666667%);stop-opacity:0;"/>
</radialGradient>
<clipPath id="clip3">
  <path d="M 9 3 L 22 3 L 22 23 L 9 23 Z M 9 3 "/>
</clipPath>
<clipPath id="clip4">
  <path d="M 20.800781 3.300781 C 18.621094 3.300781 17.128906 14.78125 9.078125 21.191406 C 11.339844 20.820312 13.300781 26.429688 14.199219 28.699219 C 18.199219 28.019531 21.398438 20.371094 24.628906 20.488281 C 26.480469 20.558594 28.101562 22.351562 30 24.121094 C 25.660156 15 23.628906 3.300781 20.800781 3.300781 Z M 20.800781 3.300781 "/>
</clipPath>
<clipPath id="clip5">
  <path d="M 9 3 L 22 3 L 22 22 L 9 22 Z M 9 3 "/>
</clipPath>
<clipPath id="clip6">
  <path d="M 20.800781 3.300781 C 18.621094 3.300781 17.128906 14.78125 9.078125 21.191406 C 11.339844 20.820312 13.300781 26.429688 14.199219 28.699219 C 18.199219 28.019531 21.398438 20.371094 24.628906 20.488281 C 26.480469 20.558594 28.101562 22.351562 30 24.121094 C 25.660156 15 23.628906 3.300781 20.800781 3.300781 Z M 20.800781 3.300781 "/>
</clipPath>
<radialGradient id="radial1" gradientUnits="userSpaceOnUse" cx="181.07" cy="252.92" fx="181.07" fy="252.92" r="1.4" gradientTransform="matrix(1.6467,-0.1244,0.4849,6.4207,-399.12,-1588.7)">
<stop offset="0" style="stop-color:rgb(100%,60%,26.666667%);stop-opacity:1;"/>
<stop offset="0.41" style="stop-color:rgb(100%,53.333333%,26.666667%);stop-opacity:0.8;"/>
<stop offset="0.94" style="stop-color:rgb(100%,53.333333%,26.666667%);stop-opacity:0;"/>
</radialGradient>
<radialGradient id="radial2" gradientUnits="userSpaceOnUse" cx="2.38" cy="95.34" fx="2.38" fy="95.34" r="1.4" gradientTransform="matrix(0.9518,-0.0719,0.2798,3.7052,-7.56,-344.39)">
<stop offset="0.24" style="stop-color:rgb(100%,100%,26.666667%);stop-opacity:1;"/>
<stop offset="0.44" style="stop-color:rgb(100%,93.333333%,26.666667%);stop-opacity:0.709804;"/>
<stop offset="0.79" style="stop-color:rgb(100%,86.666667%,26.666667%);stop-opacity:0.211765;"/>
<stop offset="0.94" style="stop-color:rgb(93.333333%,80%,26.666667%);stop-opacity:0;"/>
</radialGradient>
</defs>
<g id="surface1">
<path style=" stroke:none;fill-rule:nonzero;fill:rgb(26.666667%,60%,86.666667%);fill-opacity:1;" d="M 2 17.550781 L 9.96875 14.328125 C 9.96875 14.328125 12.019531 11.730469 12.691406 11.378906 C 13.351562 11.03125 14.589844 11.21875 16.859375 8.398438 C 19.058594 5.648438 19.761719 3.300781 20.789062 3.300781 C 22.421875 3.300781 23.621094 6.820312 25.441406 12.148438 C 26.578125 15.5 27.839844 19.410156 30 24.121094 C 28.101562 22.351562 26.480469 20.441406 24.628906 20.488281 C 22.910156 20.53125 21 22.570312 18.910156 25.191406 C 17.25 27.289062 15.050781 28.730469 14.191406 28.699219 C 14.191406 28.699219 11.96875 22.421875 10.109375 21.398438 C 9.011719 20.800781 7.71875 21.601562 7.71875 21.601562 L 2 17.539062 Z M 2 17.550781 "/>
<path style=" stroke:none;fill-rule:nonzero;fill:rgb(26.666667%,60%,86.666667%);fill-opacity:1;" d="M 16.859375 8.398438 C 14.589844 11.21875 13.359375 11.03125 12.691406 11.378906 C 12.019531 11.71875 9.96875 14.328125 9.96875 14.328125 L 2 17.550781 L 7.449219 21.398438 L 7.71875 21.601562 C 7.71875 21.601562 8.339844 21.21875 9.078125 21.191406 C 14.78125 16.589844 17.089844 9.878906 18.738281 6.101562 C 19.121094 5.230469 19.460938 4.511719 19.800781 4.019531 C 19.128906 4.921875 18.320312 6.570312 16.859375 8.398438 Z M 16.859375 8.398438 "/>
<path style=" stroke:none;fill-rule:nonzero;fill:url(#linear0);" d="M 19.800781 4.019531 C 19.128906 4.921875 18.320312 6.570312 16.859375 8.398438 C 14.589844 11.21875 13.359375 11.03125 12.691406 11.378906 C 12.019531 11.71875 9.96875 14.320312 9.96875 14.328125 L 13.269531 16.738281 C 16.070312 12.921875 17.570312 8.78125 18.738281 6.101562 C 19.121094 5.230469 19.460938 4.519531 19.800781 4.019531 Z M 19.800781 4.019531 "/>
<path style=" stroke:none;fill-rule:nonzero;fill:url(#linear1);" d="M 9.96875 14.328125 L 2 17.550781 L 7.449219 21.398438 L 7.71875 21.601562 C 7.71875 21.601562 8.339844 21.21875 9.078125 21.191406 C 7.941406 31.839844 -0.246094 40.382812 -10.839844 41.972656 C -21.429688 43.5625 -31.761719 37.804688 -35.984375 27.960938 C -40.203125 18.113281 -37.246094 6.660156 -28.785156 0.0859375 C -20.328125 -6.484375 -8.5 -6.519531 0 0 L -3.300781 -2.410156 Z M 9.96875 14.328125 "/>
<g clip-path="url(#clip1)" clip-rule="nonzero">
<g clip-path="url(#clip2)" clip-rule="nonzero">
<path style=" stroke:none;fill-rule:nonzero;fill:rgb(100%,53.333333%,26.666667%);fill-opacity:1;" d="M 8 3 L 31 3 L 31 29 L 8 29 Z M 8 3 "/>
<path style=" stroke:none;fill-rule:nonzero;fill:url(#linear2);" d="M 8 3 L 31 3 L 31 29 L 8 29 Z M 8 3 "/>
<path style=" stroke:none;fill-rule:nonzero;fill:url(#linear3);" d="M 8 3 L 31 3 L 31 29 L 8 29 Z M 8 3 "/>
<path style=" stroke:none;fill-rule:nonzero;fill:url(#radial0);" d="M 8 3 L 31 3 L 31 29 L 8 29 Z M 8 3 "/>
</g>
</g>
<g clip-path="url(#clip3)" clip-rule="nonzero">
<g clip-path="url(#clip4)" clip-rule="nonzero">
<path style="fill:none;stroke-width:1.5;stroke-linecap:butt;stroke-linejoin:bevel;stroke:rgb(26.666667%,6.666667%,13.333333%);stroke-opacity:1;stroke-miterlimit:10;" d="M 21 1.878906 C 19.800781 3.300781 16.351562 17.269531 9 21.859375 "/>
</g>
</g>
<g clip-path="url(#clip5)" clip-rule="nonzero">
<g clip-path="url(#clip6)" clip-rule="nonzero">
<path style="fill:none;stroke-width:0.39;stroke-linecap:butt;stroke-linejoin:bevel;stroke:rgb(20%,46.666667%,73.333333%);stroke-opacity:1;stroke-miterlimit:10;" d="M 20.929688 3.101562 C 18.648438 3.648438 17.128906 15.578125 8.75 21.421875 "/>
</g>
</g>
<path style=" stroke:none;fill-rule:nonzero;fill:url(#radial1);" d="M 24.328125 12.558594 C 24.691406 17.398438 23.808594 21.410156 22.359375 21.519531 C 20.910156 21.621094 19.441406 17.800781 19.070312 12.960938 C 18.710938 8.121094 19.589844 4.109375 21.039062 4 C 22.488281 3.898438 23.960938 7.730469 24.328125 12.558594 Z M 24.328125 12.558594 "/>
<path style=" stroke:none;fill-rule:nonzero;fill:url(#radial2);" d="M 22.910156 8.601562 C 23.121094 11.378906 22.609375 13.699219 21.78125 13.761719 C 20.941406 13.820312 20.078125 11.609375 19.878906 8.820312 C 19.679688 6.03125 20.179688 3.71875 21.011719 3.648438 C 21.851562 3.589844 22.710938 5.800781 22.910156 8.589844 Z M 22.910156 8.601562 "/>
</g>
</svg>

<svg xmlns="http://www.w3.org/2000/svg" xmlns:xlink="http://www.w3.org/1999/xlink" width="128px" height="128px" viewBox="0 0 128 128"><path fill="#49d" d="M2 17.55l7.97-3.22s2.05-2.6 2.72-2.95c.66-.35 1.9-.16 4.17-2.98 2.2-2.75 2.9-5.1 3.93-5.1 1.63 0 2.83 3.52 4.65 8.85 1.14 3.35 2.4 7.26 4.56 11.97-1.9-1.77-3.52-3.68-5.37-3.63-1.72.04-3.63 2.08-5.72 4.7-1.66 2.1-3.86 3.54-4.72 3.51 0 0-2.22-6.28-4.08-7.3-1.1-.6-2.39.2-2.39.2L2 17.54z"/><path fill="#49d" d="M16.86 8.4c-2.27 2.82-3.5 2.63-4.17 2.98-.67.34-2.72 2.95-2.72 2.95L2 17.55l5.45 3.85.27.2s.62-.38 1.36-.41c5.7-4.6 8.01-11.31 9.66-15.09.38-.87.72-1.59 1.06-2.08-.67.9-1.48 2.55-2.94 4.38z"/><linearGradient id="a" x1="16.8" x2="15.01" y1="15.37" y2="9.59" gradientUnits="userSpaceOnUse"><stop offset="0" stop-color="#512"/><stop offset=".1" stop-color="#522"/><stop offset=".23" stop-color="#523"/><stop offset=".36" stop-color="#534"/><stop offset=".51" stop-color="#645"/><stop offset=".66" stop-color="#568"/><stop offset=".81" stop-color="#38c"/><stop offset=".84" stop-color="#29d"/></linearGradient><path fill="url(#a)" d="M19.8 4.02c-.67.9-1.48 2.55-2.94 4.38-2.27 2.82-3.5 2.63-4.17 2.98-.67.34-2.72 2.94-2.72 2.95l3.3 2.41c2.8-3.82 4.3-7.96 5.47-10.64.38-.87.72-1.58 1.06-2.08z"/><linearGradient id="b" x1="2" x2="13.27" y1="17.96" y2="17.96" gradientUnits="userSpaceOnUse"><stop offset="0" stop-color="#5ae"/><stop offset=".24" stop-color="#5ad"/><stop offset=".49" stop-color="#5ad"/><stop offset=".75" stop-color="#69c"/><stop offset="1" stop-color="#68a"/></linearGradient><path fill="url(#b)" d="M9.97 14.33L2 17.55l5.45 3.85.27.2s.62-.38 1.36-.41a23.55 23.55 0 004.19-4.45l-3.3-2.41z"/><defs><path id="c" d="M20.8 3.3c-2.18 0-3.67 11.48-11.72 17.89 2.26-.37 4.22 5.24 5.12 7.51 4-.68 7.2-8.33 10.43-8.21 1.85.07 3.47 1.86 5.37 3.63C25.66 15 23.63 3.3 20.8 3.3z"/></defs><clipPath id="d"><use overflow="visible" xlink:href="#c"/></clipPath><path fill="#f84" d="M8 3h23v26H8z" clip-path="url(#d)"/><linearGradient id="e" x1="14.6" x2="21.6" y1="14.37" y2="16.7" gradientUnits="userSpaceOnUse"><stop offset="0" stop-color="#612"/><stop offset=".3" stop-color="#822"/><stop offset=".44" stop-color="#822" stop-opacity=".8"/><stop offset=".63" stop-color="#922" stop-opacity=".52"/><stop offset=".86" stop-color="#b33" stop-opacity=".21"/><stop offset="1" stop-color="#c33" stop-opacity="0"/></linearGradient><path fill="url(#e)" d="M8 3h23v26H8z" clip-path="url(#d)"/><linearGradient id="f" x1="27.17" x2="22.12" y1="14.12" y2="15.36" gradientUnits="userSpaceOnUse"><stop offset=".07" stop-color="#c33"/><stop offset=".28" stop-color="#d43"/><stop offset=".41" stop-color="#d43"/><stop offset="1" stop-color="#c33" stop-opacity="0"/></linearGradient><path fill="url(#f)" d="M8 3h23v26H8z" clip-path="url(#d)"/><radialGradient id="g" cx="13.42" cy="30.06" r="10.64" fx="13.13" fy="30.43" gradientUnits="userSpaceOnUse"><stop offset=".17" stop-color="#ff4"/><stop offset=".23" stop-color="#fe4"/><stop offset=".36" stop-color="#fb4" stop-opacity=".88"/><stop offset=".55" stop-color="#e74" stop-opacity=".76"/><stop offset=".58" stop-color="#e74" stop-opacity=".74"/><stop offset=".8" stop-color="#f84" stop-opacity="0"/></radialGradient><path fill="url(#g)" d="M8 3h23v26H8z" clip-path="url(#d)"/><path fill="none" stroke="#412" stroke-linejoin="bevel" stroke-miterlimit="10" stroke-width="1.5" d="M21 1.88C19.8 3.3 16.35 17.27 9 21.86" clip-path="url(#d)"/><path fill="none" stroke="#37b" stroke-linejoin="bevel" stroke-miterlimit="10" stroke-width=".39" d="M20.93 3.1c-2.28.55-3.8 12.48-12.18 18.32" clip-path="url(#d)"/><radialGradient id="h" cx="181.07" cy="252.92" r="1.4" gradientTransform="matrix(1.6467 -.1244 .4849 6.4207 -399.12 -1588.7)" gradientUnits="userSpaceOnUse"><stop offset="0" stop-color="#f94"/><stop offset=".41" stop-color="#f84" stop-opacity=".8"/><stop offset=".94" stop-color="#f84" stop-opacity="0"/></radialGradient><path fill="url(#h)" d="M24.33 12.56c.36 4.84-.52 8.85-1.97 8.96-1.45.1-2.92-3.72-3.29-8.56-.36-4.84.52-8.85 1.97-8.96 1.45-.1 2.92 3.73 3.29 8.56z"/><radialGradient id="i" cx="2.38" cy="95.34" r="1.4" gradientTransform="matrix(.9518 -.0719 .2798 3.7052 -7.56 -344.39)" gradientUnits="userSpaceOnUse"><stop offset=".24" stop-color="#ff4"/><stop offset=".44" stop-color="#fe4" stop-opacity=".71"/><stop offset=".79" stop-color="#fd4" stop-opacity=".21"/><stop offset=".94" stop-color="#ec4" stop-opacity="0"/></radialGradient><path fill="url(#i)" d="M22.91 8.6c.21 2.78-.3 5.1-1.13 5.16-.84.06-1.7-2.15-1.9-4.94s.3-5.1 1.13-5.17c.84-.06 1.7 2.15 1.9 4.94z"/></svg>
